X: 1
T: Jessie Smith Strathspey
C: arr. T. Traub 11-19-2002
R: Strathspey
M: 4/4
K: D
L: 1/8
|:d|"D"A<FF>E D>A G/F/E/D/|"D"A<FF>A "G"B2 B<d|"D"A<FF>E "Bm"D>A G/F/E/D/|"Em"G<BA>F "A"E2 :|
A|"D"d2 "D/F#"f>d "G"B>e "A"d/c/B/A/|"D"d>e f<d "G"B3 A|"D"d>e f<d "G"B>e d/c/B/A/|"Em"d>B A<F "A"E3 A|
"D"d2 "D/F#"f>d "G"B>e "A"d/c/B/A/|"D"d>e f<d "G"B2 g2|"D"fed "A"cde "Bm"dcB "F#m"AGF|"G"d>B A<F "A"E3|]
